PR6/img/like.svg

<svg fill="none" height="20" viewBox="0 0 22 20" width="22" xmlns="http://www.w3.org/2000/svg"><path d="m11 19.5714c.1964 0 .3929-.0736.5402-.221l7.6484-7.366c.1105-.1105 2.8114-2.57815 2.8114-5.52458 0-3.5971-2.1975-5.745535-5.8683-5.745535-2.1484 0-4.1618 1.694195-5.1317 2.651785-.9699-.95759-2.98326-2.651785-5.1317-2.651785-3.67076 0-5.8683 2.148435-5.8683 5.745535 0 2.94643 2.70089 5.41408 2.79911 5.49998l7.66069 7.3906c.1473.1474.3438.221.5402.221z" fill="#c71fa2"/></svg>

<svg width="22" height="20" viewBox="0 0 22 20" fill="none" xmlns="http://www.w3.org/2000/svg">
<path d="M11 19.5714C11.1964 19.5714 11.3929 19.4978 11.5402 19.3504L19.1886 11.9844C19.2991 11.8739 22 9.40625 22 6.45982C22 2.86272 19.8025 0.714285 16.1317 0.714285C13.9833 0.714285 11.9699 2.40848 11 3.36607C10.0301 2.40848 8.01674 0.714285 5.8683 0.714285C2.19754 0.714285 0 2.86272 0 6.45982C0 9.40625 2.70089 11.8739 2.79911 11.9598L10.4598 19.3504C10.6071 19.4978 10.8036 19.5714 11 19.5714Z" fill="#C71FA2"/>
</svg>
